X: 99
T: the Fair at Dungarvan   #2
R: waltz
%S: s:2 b:21(10+11)
B: O'Neill's 1850 #99
Z: 1999 John Chambers <jc@trillian.mit.edu>
Q: "Moderate"
O: F.O'Neill
N: Compacted via repeats and multiple endings [JC]
N: Compacted by using labels and play order [JC]
P: Play AB1 B2A
M: 3/4
L: 1/4
K: G
"^A"[|] (B/A/) | GED | GBd | e2e | dBA || GBA | G2G | G3- | "^fine"G2 "^B"|: B | (d2B) | def |
| g2 [1 g | fed | efe | edB | d3- | d2 :|[2 a | age | edB | BAG | A3- | "^->A"A2 |]
